views/1/public/assets/roshbank.svg

<svg fill="none" height="20" viewBox="0 0 20 20" width="20" xmlns="http://www.w3.org/2000/svg"><path d="m19 1h-18v9.34h18z" fill="#e9041e"/><path d="m19 9.87891h-18v9.12109h18z" fill="#000"/><path d="m15.7771 9.38672h-11.68921v1.09448h11.68921z" fill="#fff"/></svg>

<svg width="20" height="20" viewBox="0 0 20 20" fill="none" xmlns="http://www.w3.org/2000/svg">
<path d="M19 1H1V10.34H19V1Z" fill="#E9041E"/>
<path d="M19 9.87891H1V19H19V9.87891Z" fill="black"/>
<path d="M15.7771 9.38672H4.08789V10.4812H15.7771V9.38672Z" fill="white"/>
</svg>
